X:102
T:Con's Slip Jig
R:slip jig
H:A version of "Andrew Carr". Related to "The Tipperary Hills" hop jig#18
D:Altan: Another Sky
Z:id:hn-slipjig-102
M:9/8
L:1/8
K:E
G2B BGe BGE | ~A3 c2B cde | GBB B^Ac Bcd | eBG EFG F2E :|
e2c BGB EGB | cff f2g agf | e2c BGB Bcd | eBG EFG F2E |
e2c BGB BGB | cff f2g agf | e2c B^Ac Bcd | egb bag f2e ||

